images/about_icon-6.svg

<svg width="46" height="46" viewBox="0 0 46 46" fill="none" xmlns="http://www.w3.org/2000/svg">
<rect opacity="0.1" width="46" height="46" rx="5" fill="#FE753F"/>
<path d="M29.5038 22.9267C30.9561 23.0967 32.2711 22.057 32.4411 20.6045C32.6109 19.1524 31.5714 17.8373 30.1189 17.6674C28.6666 17.4974 27.3515 18.537 27.182 19.9894C27.0116 21.4419 28.0515 22.7568 29.5038 22.9267Z" fill="#FE753F"/>
<path d="M17.9723 20.7735L21.9106 19.987L22.7575 21.349L19.6892 24.2667C20.1629 24.3864 20.6179 24.5646 21.0409 24.7978C21.2438 24.9096 21.4339 25.0387 21.6177 25.1635C21.9138 25.3646 22.1925 25.5582 22.4686 25.634C22.687 25.694 22.9732 25.6974 22.9914 25.6985C23.3803 25.6951 23.7231 25.5869 24.0729 25.3588C24.9826 24.7656 26.0993 24.1511 27.4843 24.0903C27.5865 24.0858 27.6897 24.0835 27.7913 24.0835C28.2356 24.0835 28.67 24.1271 29.0854 24.2118C28.8004 23.7567 23.7228 17.6036 23.7228 17.6036L23.5889 17.4435C23.2613 17.054 22.7129 16.8911 22.2073 17.0764L17.4255 18.8303C16.9645 18.9989 16.6822 19.4828 16.7813 19.979C16.8908 20.5272 17.424 20.8829 17.9723 20.7735Z" fill="#FE753F"/>
<path d="M35.3799 26.8911C34.728 27.1833 34.2421 27.3025 33.7025 27.3025C33.49 27.3025 33.2701 27.2835 33.0302 27.2442C32.2313 27.1018 31.6619 26.6405 31.1111 26.1943C30.7724 25.9199 30.4525 25.6607 30.0824 25.4699C29.4125 25.1226 28.607 24.9391 27.7521 24.9391C27.6634 24.9391 27.5732 24.9412 27.484 24.9452C26.3151 24.9964 25.3673 25.5165 24.517 26.0708C24.0182 26.3962 23.4265 26.5523 22.8896 26.5523C22.7277 26.5523 22.398 26.5168 22.1841 26.4551C21.7736 26.3367 21.4216 26.0975 21.0812 25.8665C20.9064 25.7476 20.7412 25.6355 20.5743 25.5435C19.8598 25.1496 19.0347 24.9413 18.1883 24.9413H18.1711C16.9861 24.9452 15.9144 25.3087 15.072 25.9921C13.899 26.9441 13.1249 27.2115 12.9042 27.2492C12.9042 27.2492 12.7191 27.2976 12.3216 27.2976C11.5602 27.2976 10.9239 27.0482 10.2852 26.7705C9.83647 26.5753 9.41362 26.4633 9.00003 26.4307C9.08022 26.477 9.15699 26.5254 9.23146 26.5765C9.55565 26.8025 9.82248 27.0772 10.0804 27.3429C10.2185 27.485 10.3488 27.6193 10.4873 27.7467C11.0295 28.2455 12.1486 28.8351 13.4366 28.8351C14.0902 28.8351 14.7226 28.693 15.316 28.4126C15.4907 28.3301 15.6607 28.2319 15.8406 28.128C16.1391 27.9557 16.4492 27.782 16.7928 27.6663C17.2264 27.5202 17.8994 27.5686 17.8994 27.5686C18.5972 27.6132 19.1198 27.9429 19.4971 28.2252C20.6466 29.085 21.7311 29.4908 22.9101 29.5023L22.9702 29.5026C23.7814 29.5026 24.5236 29.3463 25.1763 29.0379C25.4803 28.8942 25.7697 28.6828 26.0763 28.4589C26.652 28.0384 27.2474 27.6034 28.0141 27.5733C28.0597 27.5715 28.1061 27.5705 28.1532 27.5705C28.573 27.5705 29.2052 27.6435 29.8326 27.991C30.5879 28.4107 31.5015 28.8396 32.5557 28.8396C32.7089 28.8396 32.8653 28.8306 33.0204 28.8131C33.9908 28.7033 34.8109 28.3455 35.4582 27.7497C35.597 27.6221 35.7276 27.4873 35.8659 27.3448C36.161 27.0409 36.4659 26.7266 36.8512 26.4879C36.8801 26.4699 36.9091 26.4525 36.9384 26.4356C36.4728 26.477 35.9795 26.6222 35.3799 26.8911Z" fill="#FE753F"/>
</svg>

<svg width="46" height="46" fill="none" xmlns="http://www.w3.org/2000/svg"><rect opacity=".1" width="46" height="46" rx="5" fill="#FE753F"/><path d="M29.504 22.927a2.648 2.648 0 10.615-5.26 2.648 2.648 0 00-.615 5.26zm-11.532-2.154l3.939-.786.846 1.362-3.068 2.918c.474.12.929.298 1.352.53.203.113.393.242.577.366.296.202.575.395.85.471.219.06.505.063.523.064a1.936 1.936 0 001.082-.34c.91-.592 2.026-1.207 3.411-1.268a6.485 6.485 0 011.601.122c-.285-.455-5.362-6.608-5.362-6.608l-.134-.16a1.246 1.246 0 00-1.382-.368l-4.782 1.754a1.013 1.013 0 00.547 1.944z" fill="#FE753F"/><path d="M35.38 26.891c-.652.292-1.138.412-1.678.412-.212 0-.432-.02-.672-.059-.799-.142-1.368-.604-1.919-1.05-.339-.274-.659-.533-1.029-.724-.67-.347-1.475-.53-2.33-.53a5.99 5.99 0 00-.268.005c-1.169.051-2.117.572-2.967 1.126a3.033 3.033 0 01-1.627.481c-.162 0-.492-.035-.706-.097-.41-.118-.762-.357-1.103-.588a6.53 6.53 0 00-.507-.323 4.95 4.95 0 00-2.386-.603h-.017c-1.185.004-2.257.368-3.099 1.051-1.173.952-1.947 1.22-2.168 1.257 0 0-.185.049-.582.049-.762 0-1.398-.25-2.037-.527A3.995 3.995 0 009 26.43c.08.046.157.094.231.145.325.226.591.501.85.767.138.142.268.276.406.404.543.498 1.662 1.088 2.95 1.088.653 0 1.286-.142 1.879-.422.175-.083.345-.181.525-.285.298-.172.608-.346.952-.462.433-.146 1.106-.097 1.106-.097.698.044 1.22.374 1.598.656 1.15.86 2.234 1.266 3.413 1.277h.06c.811 0 1.554-.156 2.206-.464.304-.144.594-.355.9-.58.576-.42 1.171-.855 1.938-.885a3.487 3.487 0 011.819.418c.755.42 1.669.849 2.723.849.153 0 .31-.01.464-.027.97-.11 1.79-.467 2.438-1.063.139-.128.27-.263.408-.405.295-.304.6-.618.985-.857a3 3 0 01.087-.052c-.465.041-.959.186-1.558.455z" fill="#FE753F"/></svg>
